X: 42967
T: Willie Coleman's
R: jig
M: 6/8
K: Gmajor
|:B2G AGE|GED GBd|edB dgb|age dBA|
B2G AGE|GED GBd|edg edB|AGF G3:|
|:~g3 edB|dgb age|~g3 edB|G(B/c/d) e2d|
~g3 edB|dgb age|d(B/c/d) gdB|AGF G3:|

